X: 1
T:Battle of Aughrim, The
R:march
S:Martin Byrnes
Z:The second measure in the first part is usually played  |e2d2 c2B2|.
M:2/4
L:1/16
K:G
AG|E2A2 A2Bd|e2dB c3A|B2G2 G3A|B2AG E2D2|!
E2A2 A2Bd|e2d2 eaag|eged BAGB|A4 z2:|!
fg|a2e2 e2fg|abag e2fg|abaf g2e2|dedB G2fg|!
a2e2 e2fg|abag e3d|B2e2 d2B2|A4 z2:|!
